Sources/FrostedUI/Resources/Icons.xcassets/folderAdd12.imageset/folder-add-12.svg

<svg width="12" height="12" viewBox="0 0 12 12" fill="none" xmlns="http://www.w3.org/2000/svg" data-fui-icon="true">
  <path
    d="M4.23535 0.5C4.66475 0.5 5.07074 0.684751 5.35156 1.00195L5.46387 1.14551L6.39453 2.5H10.4102C11.2882 2.50008 11.9999 3.21183 12 4.08984V5.75C12 6.16421 11.6642 6.5 11.25 6.5C10.8358 6.5 10.5 6.16421 10.5 5.75V4.08984C10.4999 4.04026 10.4597 4.00008 10.4102 4H6.38965C5.89904 4 5.43911 3.75875 5.16113 3.35449L4.23047 2H1.58984C1.54026 2.00008 1.50008 2.04026 1.5 2.08984V9.91016C1.50008 9.95974 1.54026 9.99992 1.58984 10H5.25C5.66421 10 6 10.3358 6 10.75C6 11.1642 5.66421 11.5 5.25 11.5H1.58984C0.711835 11.4999 8.45151e-05 10.7882 0 9.91016V2.08984C8.43864e-05 1.21183 0.711835 0.500084 1.58984 0.5H4.23535ZM8.75 6C9.16421 6 9.5 6.33579 9.5 6.75V8H10.75C11.1642 8 11.5 8.33579 11.5 8.75C11.5 9.16421 11.1642 9.5 10.75 9.5H9.5V10.75C9.5 11.1642 9.16421 11.5 8.75 11.5C8.33579 11.5 8 11.1642 8 10.75V9.5H6.75C6.33579 9.5 6 9.16421 6 8.75C6 8.33579 6.33579 8 6.75 8H8V6.75C8 6.33579 8.33579 6 8.75 6Z"
    fill="currentColor"
  />
</svg>

<svg xmlns="http://www.w3.org/2000/svg" width="12" height="12" fill="none" data-fui-icon="true" viewBox="0 0 12 12"><path fill="currentColor" d="M4.235.5c.43 0 .836.185 1.117.502l.112.144.93 1.354h4.016c.878 0 1.59.712 1.59 1.59v1.66a.75.75 0 0 1-1.5 0V4.09a.09.09 0 0 0-.09-.09H6.39c-.491 0-.95-.241-1.229-.646L4.231 2H1.59a.09.09 0 0 0-.09.09v7.82c0 .05.04.09.09.09h3.66a.75.75 0 0 1 0 1.5H1.59A1.59 1.59 0 0 1 0 9.91V2.09C0 1.212.712.5 1.59.5zM8.75 6a.75.75 0 0 1 .75.75V8h1.25a.75.75 0 0 1 0 1.5H9.5v1.25a.75.75 0 0 1-1.5 0V9.5H6.75a.75.75 0 0 1 0-1.5H8V6.75A.75.75 0 0 1 8.75 6"/></svg>
